X: 11213
T: HOPE TOLD A FLATTERING TALE.
Q: "Andante."
%R: jig
B: W. Hamilton "Universal Tune-Book" Vol. 1 Glasgow 1844 p.121 #3
S: http://imslp.org/wiki/Hamilton's_Universal_Tune-Book_(Various)
Z: 2016 John Chambers <jc:trillian.mit.edu>
N: Both strains have a final but no initial repeat symbol; fixed.
M: 6/8
L: 1/8
K: G
%%stretchstaff 0
%%slurgraces yes
%%graceslurs yes
% - - - - - - - - - - - - - - - - - - - - - - - - -
d |\
B2B A>GA | G3 z2d | d2B e2d | A3 z2A |\
B2B c2c | d2d e2e | G2G {B}A>GA | G3 z2 ::\
d |\
^G2G e2d | (dc)c c2c |
F2F d2c | (cB)B B2G |\
^c2c c>Bc | edz z2(d | c2)(c B2)B | (BA)z z2A |\
B2(B c2)(c | d2)^d (f/e/d/c/B/A/) | G2G B2A | G3 z2 :|
% - - - - - - - - - - - - - - - - - - - - - - - - -

%%sep 1 1 500
%%sep 1 1 500

